public/icons/picto-economic.svg

<svg fill="none" height="66" viewBox="0 0 66 66" width="66" xmlns="http://www.w3.org/2000/svg"><path d="m19.9453 10.4738c0-2.51263.9981-4.92232 2.7748-6.699s4.1864-2.7748 6.699-2.7748 4.9223.99812 6.699 2.7748c1.7766 1.77668 2.7748 4.18637 2.7748 6.699.0002.3728-.0209.7454-.0632 1.1158-.021.1579-.0421.3158-.0737.4737-.0204.1738-.052.3461-.0947.5158-.374 1.639-1.181 3.1477-2.3369 4.3684-1.0526-.1052-2.1263-.1579-3.2211-.1579-3.1443-.0055-6.2736.434-9.2948 1.3053-1.6102-1.1776-2.8045-2.8363-3.4106-4.7369-.0631-.1684-.1052-.3368-.1578-.5158-.0527-.2316-.1053-.4737-.1474-.7158-.0085-.0161-.0122-.0344-.0105-.0526-.0356-.1808-.0602-.3636-.0737-.5474-.0094-.027-.013-.0557-.0106-.0842l-.0315-.3158c-.0106-.2105-.0211-.4316-.0211-.6526z" fill="#4550e5"/><path d="m62.0517 32.5793h-2.9474c-.9789-2.9579-2.7632-5.6737-5.1316-7.9685l4.9211-8.8737c-2.1889-.4697-4.4636-.3456-6.5883.3596-2.1248.7052-4.0223 1.9657-5.496 3.6509-2.1579-1.3052-4.758-1.7579-4.758-1.7579-1.8738-.5176-3.7903-.8664-5.7263-1.0421-1.0527-.1053-2.1264-.1579-3.2211-.1579-3.1444-.0055-6.2737.4339-9.2948 1.3053-9.3159 2.6948-16.2002 9.3264-17.36863 17.337-.11793.7981-.17774 1.6038-.17895 2.4105 0 6.6106 2.81055 11.737 7.36848 15.2844v8.9264c0 .5584.2218 1.0939.6166 1.4887.3949.3948.9303.6166 1.4887.6166h6.3158c.5584 0 1.0939-.2218 1.4887-.6166s.6166-.9303.6166-1.4887v-4.1369c2.9355.6661 5.9374.9946 8.9475.979 2.6587.0046 5.3086-.3045 7.8948-.9211v4.079c0 .5584.2218 1.0939.6166 1.4887s.9303.6166 1.4887.6166h6.3158c.5584 0 1.0939-.2218 1.4887-.6166s.6166-.9303.6166-1.4887v-8.9054c3.6211-2.6737 6.2948-6.1368 7.579-10.0421h2.9474c.5584 0 1.0939-.2218 1.4887-.6167.3948-.3948.6166-.9303.6166-1.4886v-6.3159c0-.5583-.2218-1.0938-.6166-1.4886-.3948-.3949-.9303-.6167-1.4887-.6167zm-10.5264 3.6843c-.4164 0-.8234-.1235-1.1696-.3548-.3462-.2314-.6161-.5602-.7754-.9448-.1594-.3847-.2011-.808-.1198-1.2164.0812-.4084.2817-.7835.5762-1.078.2944-.2944.6695-.4949 1.0779-.5761.4084-.0813.8317-.0396 1.2164.1198.3847.1593.7135.4292.9448.7754s.3548.7532.3548 1.1696c0 .5584-.2218 1.0938-.6166 1.4887-.3948.3948-.9303.6166-1.4887.6166z" fill="#efc73f"/><path d="m51.5272 36.2635c1.1627 0 2.1052-.9425 2.1052-2.1052 0-1.1628-.9425-2.1053-2.1052-2.1053-1.1628 0-2.1053.9425-2.1053 2.1053 0 1.1627.9425 2.1052 2.1053 2.1052z" fill="#4550e5"/><g stroke-linecap="round" stroke-linejoin="round" stroke-width="2"><path d="m45.2109 22.0529c.4438-.8268.9807-1.6003 1.6001-2.3053 1.4737-1.6852 3.3712-2.9457 5.496-3.6509 2.1247-.7052 4.3994-.8293 6.5883-.3596l-4.9264 8.8737" stroke="#d3ac2f"/><path d="m53.9674 24.6107c2.379 2.2948 4.158 5.0106 5.1317 7.9685h2.9526c.5584 0 1.0939.2218 1.4887.6167.3948.3948.6166.9303.6166 1.4886v6.3159c0 .5583-.2218 1.0938-.6166 1.4886s-.9303.6167-1.4887.6167h-2.9474c-1.2842 3.9053-3.9579 7.3684-7.579 10.0422v8.9053c0 .5584-.2218 1.0939-.6166 1.4887s-.9303.6166-1.4887.6166h-6.3158c-.5584 0-1.0939-.2218-1.4887-.6166s-.6166-.9303-.6166-1.4887v-4.079c-2.5862.6166-5.2361.9257-7.8948.9211-3.0101.0156-6.012-.3129-8.9475-.979v4.1369c0 .5584-.2218 1.0939-.6166 1.4887s-.9303.6166-1.4887.6166h-6.3158c-.5584 0-1.0939-.2218-1.4887-.6166s-.6166-.9303-.6166-1.4887v-8.9264c-4.55793-3.5527-7.36848-8.6738-7.36848-15.2844.00121-.8067.06102-1.6124.17895-2.4105 1.16843-8.0106 8.05273-14.6423 17.36863-17.337 3.0211-.8714 6.1504-1.3108 9.2948-1.3053 1.0947 0 2.1684.0526 3.2211.1579 1.936.1757 3.8525.5245 5.7263 1.0421" stroke="#d3ac2f"/><path d="m1 26.2634c0 3.9053 1.85265 7.7054 5.44216 9.1685" stroke="#d3ac2f"/><path d="m38.7617 12.0633c.0316-.1579.0526-.3158.0737-.4737" stroke="#303e58"/><path d="m38.8297 11.5896c.0423-.3704.0634-.743.0632-1.1158 0-2.51262-.9982-4.92232-2.7748-6.699-1.7767-1.77668-4.1864-2.7748-6.699-2.7748s-4.9223.99812-6.699 2.7748-2.7748 4.18638-2.7748 6.699" stroke="#d3ac2f"/></g></svg>

<svg width="66" height="66" viewBox="0 0 66 66" fill="none" xmlns="http://www.w3.org/2000/svg">
<path d="M19.9453 10.4738C19.9453 7.96117 20.9434 5.55148 22.7201 3.7748C24.4968 1.99812 26.9065 1 29.4191 1C31.9317 1 34.3414 1.99812 36.1181 3.7748C37.8947 5.55148 38.8929 7.96117 38.8929 10.4738C38.8931 10.8466 38.872 11.2192 38.8297 11.5896C38.8087 11.7475 38.7876 11.9054 38.756 12.0633C38.7356 12.2371 38.704 12.4094 38.6613 12.5791C38.2873 14.2181 37.4803 15.7268 36.3244 16.9475C35.2718 16.8423 34.1981 16.7896 33.1033 16.7896C29.959 16.7841 26.8297 17.2236 23.8085 18.0949C22.1983 16.9173 21.004 15.2586 20.3979 13.358C20.3348 13.1896 20.2927 13.0212 20.2401 12.8422C20.1874 12.6106 20.1348 12.3685 20.0927 12.1264C20.0842 12.1103 20.0805 12.092 20.0822 12.0738C20.0466 11.893 20.022 11.7102 20.0085 11.5264C19.9991 11.4994 19.9955 11.4707 19.9979 11.4422L19.9664 11.1264C19.9558 10.9159 19.9453 10.6948 19.9453 10.4738Z" fill="#4550E5"/>
<path d="M62.0517 32.5793H59.1043C58.1254 29.6214 56.3411 26.9056 53.9727 24.6108L58.8938 15.7371C56.7049 15.2674 54.4302 15.3915 52.3055 16.0967C50.1807 16.8019 48.2832 18.0624 46.8095 19.7476C44.6516 18.4424 42.0515 17.9897 42.0515 17.9897C40.1777 17.4721 38.2612 17.1233 36.3252 16.9476C35.2725 16.8423 34.1988 16.7897 33.1041 16.7897C29.9597 16.7842 26.8304 17.2236 23.8093 18.095C14.4934 20.7898 7.6091 27.4214 6.44067 35.432C6.32274 36.2301 6.26293 37.0358 6.26172 37.8425C6.26172 44.4531 9.07227 49.5795 13.6302 53.1269V62.0533C13.6302 62.6117 13.852 63.1472 14.2468 63.542C14.6417 63.9368 15.1771 64.1586 15.7355 64.1586H22.0513C22.6097 64.1586 23.1452 63.9368 23.54 63.542C23.9348 63.1472 24.1566 62.6117 24.1566 62.0533V57.9164C27.0921 58.5825 30.094 58.911 33.1041 58.8954C35.7628 58.9 38.4127 58.5909 40.9989 57.9743V62.0533C40.9989 62.6117 41.2207 63.1472 41.6155 63.542C42.0103 63.9368 42.5458 64.1586 43.1042 64.1586H49.42C49.9784 64.1586 50.5139 63.9368 50.9087 63.542C51.3035 63.1472 51.5253 62.6117 51.5253 62.0533V53.1479C55.1464 50.4742 57.8201 47.0111 59.1043 43.1058H62.0517C62.6101 43.1058 63.1456 42.884 63.5404 42.4891C63.9352 42.0943 64.157 41.5588 64.157 41.0005V34.6846C64.157 34.1263 63.9352 33.5908 63.5404 33.196C63.1456 32.8011 62.6101 32.5793 62.0517 32.5793ZM51.5253 36.2636C51.1089 36.2636 50.7019 36.1401 50.3557 35.9088C50.0095 35.6774 49.7396 35.3486 49.5803 34.964C49.4209 34.5793 49.3792 34.156 49.4605 33.7476C49.5417 33.3392 49.7422 32.9641 50.0367 32.6696C50.3311 32.3752 50.7062 32.1747 51.1146 32.0935C51.523 32.0122 51.9463 32.0539 52.331 32.2133C52.7157 32.3726 53.0445 32.6425 53.2758 32.9887C53.5071 33.3349 53.6306 33.7419 53.6306 34.1583C53.6306 34.7167 53.4088 35.2521 53.014 35.647C52.6192 36.0418 52.0837 36.2636 51.5253 36.2636Z" fill="#EFC73F"/>
<path d="M51.5272 36.2635C52.6899 36.2635 53.6324 35.321 53.6324 34.1583C53.6324 32.9955 52.6899 32.053 51.5272 32.053C50.3644 32.053 49.4219 32.9955 49.4219 34.1583C49.4219 35.321 50.3644 36.2635 51.5272 36.2635Z" fill="#4550E5"/>
<path d="M45.2109 22.0529C45.6547 21.2261 46.1916 20.4526 46.811 19.7476C48.2847 18.0624 50.1822 16.8019 52.307 16.0967C54.4317 15.3915 56.7064 15.2674 58.8953 15.7371L53.9689 24.6108" stroke="#D3AC2F" stroke-width="2" stroke-linecap="round" stroke-linejoin="round"/>
<path d="M53.9674 24.6107C56.3464 26.9055 58.1254 29.6213 59.0991 32.5792H62.0517C62.6101 32.5792 63.1456 32.801 63.5404 33.1959C63.9352 33.5907 64.157 34.1262 64.157 34.6845V41.0004C64.157 41.5587 63.9352 42.0942 63.5404 42.489C63.1456 42.8838 62.6101 43.1057 62.0517 43.1057H59.1043C57.8201 47.011 55.1464 50.4741 51.5253 53.1479V62.0532C51.5253 62.6116 51.3035 63.1471 50.9087 63.5419C50.5139 63.9367 49.9784 64.1585 49.42 64.1585H43.1042C42.5458 64.1585 42.0103 63.9367 41.6155 63.5419C41.2207 63.1471 40.9989 62.6116 40.9989 62.0532V57.9742C38.4127 58.5908 35.7628 58.8999 33.1041 58.8953C30.094 58.9109 27.0921 58.5824 24.1566 57.9163V62.0532C24.1566 62.6116 23.9348 63.1471 23.54 63.5419C23.1452 63.9367 22.6097 64.1585 22.0513 64.1585H15.7355C15.1771 64.1585 14.6416 63.9367 14.2468 63.5419C13.852 63.1471 13.6302 62.6116 13.6302 62.0532V53.1268C9.07227 49.5741 6.26172 44.453 6.26172 37.8424C6.26293 37.0357 6.32274 36.23 6.44067 35.4319C7.6091 27.4213 14.4934 20.7896 23.8093 18.0949C26.8304 17.2235 29.9597 16.7841 33.1041 16.7896C34.1988 16.7896 35.2725 16.8422 36.3252 16.9475C38.2612 17.1232 40.1777 17.472 42.0515 17.9896" stroke="#D3AC2F" stroke-width="2" stroke-linecap="round" stroke-linejoin="round"/>
<path d="M1 26.2634C1 30.1687 2.85265 33.9688 6.44216 35.4319" stroke="#D3AC2F" stroke-width="2" stroke-linecap="round" stroke-linejoin="round"/>
<path d="M38.7617 12.0633C38.7933 11.9054 38.8143 11.7475 38.8354 11.5896" stroke="#303E58" stroke-width="2" stroke-linecap="round" stroke-linejoin="round"/>
<path d="M38.8297 11.5896C38.872 11.2192 38.8931 10.8466 38.8929 10.4738C38.8929 7.96118 37.8947 5.55148 36.1181 3.7748C34.3414 1.99812 31.9317 1 29.4191 1C26.9065 1 24.4968 1.99812 22.7201 3.7748C20.9434 5.55148 19.9453 7.96118 19.9453 10.4738" stroke="#D3AC2F" stroke-width="2" stroke-linecap="round" stroke-linejoin="round"/>
</svg>
